Origami/24x24/apps/supermeatboy.svg

<svg width="24" height="24" version="1.1" viewBox="0 0 24 24" xmlns="http://www.w3.org/2000/svg">
 <path d="M 12,2.5 C 9.012452,2.5820796 5.6710595,3.0416408 3.0925293,3.7017325 2.3892931,3.8846594 2.1259831,3.9861488 2,4.1787656 V 21.552035 C 2,22.176691 5.7500125,22.489296 6.355469,22.5 7.0000125,22.489296 9.964344,22.175673 10,21.552035 V 19.466 h 2 2 v 2.086034 C 14,22.176691 16.999987,22.489296 17.644531,22.5 18.249987,22.489296 22,22.176691 22,21.552035 V 4.1787656 C 21.874017,3.9861488 21.610707,3.8846594 20.90747,3.7017325 18.328941,3.0416408 14.987548,2.5820796 12,2.5 Z" style="opacity:.2"/>
 <path d="M 12,2 C 9.012452,2.0820796 5.6710595,2.5416408 3.0925293,3.2017325 2.3892931,3.3846594 2.1259831,3.4861488 2,3.6787656 V 21.052035 C 2,21.676691 5.7500125,21.989296 6.355469,22 7.0000125,21.989296 9.964344,21.675673 10,21.052035 V 19 h 2 2 v 2.052034 C 14,21.676691 16.999987,21.989296 17.644531,22 18.249987,21.989296 22,21.676691 22,21.052035 V 3.6787656 C 21.874017,3.4861488 21.610707,3.3846594 20.90747,3.2017325 18.328941,2.5416408 14.987548,2.0820796 12,2 Z" style="fill:#e84343"/>
 <path d="m6 12.214001c3.9865-0.225145 7.9805-0.33982 12 0-0.662 3.672572-3.086 3.712799-5.5 3.771036-2.715 0.159703-6.02-0.949813-6.5-3.771036" style="opacity:.2"/>
 <path d="m6.3189975 9.5c0.9107965-0.0863565 0.907131-0.095679 2.5253065-0.2242325 0.1754705-0.486736 0.3344475-0.778189-0.3042095-1.684932-0.703256-1.010272-1.832588-0.5750555-2.2907355 0.1879235-0.3917155 0.856695-0.2863415 1.3954415 0.0696385 1.721241" style="fill:#2f2f2f"/>
 <path d="M 8,8.5000005 C 8,8.773942 7.7764505,9 7.5000005,9 7.2235495,9 7,8.773942 7,8.5000005 7,8.226058 7.2235495,8 7.5000005,8 7.7764505,8 8,8.226058 8,8.5000005 m 0,0" style="fill:#ffffff"/>
 <path d="m15.23594 10.503056c0.92102 0.017225 2.26406-0.003056 2.381129-0.003056 0.375743-0.266708 0.640048-1.3068695-0.024285-2.330918-0.729102-1.1440665-1.904903-0.651212-2.381129 0.212811-0.407173 0.970151-0.128581 1.6116395 0.02428 2.115051" style="opacity:.2"/>
 <path d="M 15.23594,10.003056 C 16.15696,10.020281 17.5,10 17.617069,10 17.992812,9.733292 18.257117,8.6931305 17.592784,7.669082 16.863682,6.5250155 15.687881,7.01787 15.211655,7.881893 14.804482,8.852044 15.083074,9.4935325 15.23594,9.996944" style="fill:#2f2f2f"/>
 <path d="M 17,8.5 C 17,8.7784 16.775684,9 16.498287,9 16.224315,9 16,8.7784 16,8.5 16,8.22606 16.224315,8 16.498287,8 16.775684,8 17,8.22606 17,8.5 m 0,0" style="fill:#ffffff"/>
 <path d="m6 11.714001c3.9865-0.225145 7.9805-0.33982 12 0-0.662 3.672572-3.086 3.712799-5.5 3.771036-2.715 0.159704-6.02-0.949813-6.5-3.771036" style="fill:#2f2f2f"/>
 <path d="m6.9976765 13.050442c0.04646 0.229825-0.077175 0.469779 0.130867 0.615659 1.288516 0.899848 3.7065485 1.29961 5.3476515 1.333393 2.171789 0.01177 3.883616-0.178127 4.466441-0.961783 0.126994-0.171985 0.047539-0.750085 0.057364-1.006015l-1.223016-0.0302 1.223016-0.116192v-0.837702h-5.99303l-0.00697 0.952398h-1l-0.01153-1h-2.988469l0.0023 0.947558 0.9392875 0.03224" style="fill:#ffffff"/>
 <path d="m6.00876 10.026144v0.02855c-0.01168 0.03535-0.01168 0.07432 0 0.109674 0.01168 0.04442 0.039615 0.07976 0.069583 0.115113 0.1112315 0.122364 0.2818875 0.198502 0.4560995 0.216176 0.176751 0.01768 0.3570575-0.01949 0.5140005-0.09563 0.1371345-0.06571 0.2559845-0.157714 0.392611-0.224787 0.1330715-0.06209 0.275793-0.09563 0.4286725-0.104236 0.2183995-0.0091 0.436291 0.04079 0.658754 0.01949 0.1091995-0.0091 0.216368-0.03716 0.305759-0.09563 0.04368-0.02855 0.083296-0.0639 0.1112315-0.1028761 0.032-0.04622 0.049775-0.09019 0.05333-0.141851 0.0061-0.06028-0.01168-0.118739-0.039615-0.1735761-0.027935-0.0530151-0.0716145-0.1010541-0.11885-0.1418421-0.09701-0.083389-0.214336-0.143211-0.3255675-0.210738-0.059425-0.037165-0.1208815-0.0779505-0.194528-0.097438-0.085328-0.023115-0.1803065-0.00725-0.2717295-0.017675-0.09701-0.00906-0.18437-0.044415-0.275793-0.067074-0.1864015-0.0494-0.3849925-0.053024-0.5774885-0.0213-0.190465 0.02991-0.3707715 0.1010635-0.535841 0.194876-0.1569425 0.088373-0.301696 0.205299-0.3728025 0.3557615-0.013715 0.02991-0.02387 0.06209-0.039615 0.092-0.055362 0.1327866-0.138658 0.2551507-0.2382075 0.3630128" style="opacity:.2"/>
 <path d="m6.00876 9.5261437v0.02855c-0.01168 0.03535-0.01168 0.07432 0 0.1096741 0.01168 0.04442 0.039615 0.07976 0.069583 0.115113 0.1112315 0.1223641 0.2818875 0.1985021 0.4560995 0.2161761 0.176751 0.01768 0.3570575-0.01949 0.5140005-0.09563 0.1371345-0.06571 0.2559845-0.1577141 0.392611-0.2247871 0.1330715-0.06209 0.275793-0.09563 0.4286725-0.1042361 0.2183995-0.0091 0.436291 0.04079 0.658754 0.01949 0.1091995-0.0091 0.216368-0.03716 0.305759-0.095626 0.04368-0.02855 0.083296-0.063901 0.1112315-0.102876 0.032-0.046225 0.049775-0.090187 0.05333-0.1418515 0.0061-0.06027-0.01168-0.118733-0.039615-0.17357-0.027935-0.0530245-0.0716145-0.1010635-0.11885-0.1418515-0.09701-0.083389-0.214336-0.143211-0.3255675-0.210738-0.059425-0.037165-0.1208815-0.0779505-0.194528-0.097438-0.085328-0.023115-0.1803065-0.00725-0.2717295-0.017675-0.09701-0.00906-0.18437-0.044415-0.275793-0.067074-0.1864015-0.0494-0.3849925-0.053024-0.5774885-0.0213-0.190465 0.02991-0.3707715 0.1010635-0.535841 0.194876-0.1569425 0.088373-0.301696 0.205299-0.3728025 0.3557615-0.013715 0.02991-0.02387 0.062088-0.039615 0.092-0.055362 0.1327875-0.138658 0.2551515-0.2382075 0.3630135" style="fill:#de7295"/>
 <path d="M 12,2 C 9.012452,2.0820796 5.6713035,2.5420568 3.0927735,3.2021485 2.3895372,3.3850754 2.1259831,3.4860941 2,3.678711 V 4.1787109 C 2.1259831,3.9860941 2.3895372,3.8850754 3.0927735,3.7021485 5.6713035,3.0420568 9.012452,2.5820796 12,2.5 14.987548,2.58208 18.328696,3.0420568 20.907226,3.7021485 21.610463,3.8850754 21.874017,3.9860941 22,4.1787109 V 3.678711 C 21.874017,3.4860941 21.610463,3.3850754 20.907226,3.2021485 18.328696,2.5420568 14.987548,2.0820796 12,2 Z" style="fill:#ffffff;opacity:.2"/>
 <path d="m8.4050855 3.9736296 2.1213205 2.1213203" style="fill:none;opacity:.2;stroke-linecap:round;stroke-linejoin:bevel;stroke-width:1px;stroke:#000000"/>
 <path d="m8.4050501 6.0949146 2.1213199-2.1213204" style="fill:none;opacity:.2;stroke-linecap:round;stroke:#000000"/>
 <g transform="rotate(-45,8.6707107,4.2049401)">
  <path d="m9 3.5v3" style="fill:none;stroke-linecap:round;stroke-linejoin:bevel;stroke-width:1px;stroke:#e6e6e6"/>
  <path d="m7.5 4.99995h3" style="fill:none;stroke-linecap:round;stroke:#efefef"/>
 </g>
</svg>

<svg xmlns="http://www.w3.org/2000/svg" width="24" height="24" version="1.1" viewBox="0 0 24 24">
 <path style="opacity:0.2" d="M 12,2.5 C 9.012452,2.5820796 5.6710595,3.0416408 3.0925293,3.7017325 2.3892931,3.8846594 2.1259831,3.9861488 2,4.1787656 V 21.552035 C 2,22.176691 5.7500125,22.489296 6.355469,22.5 7.0000125,22.489296 9.964344,22.175673 10,21.552035 V 19.466 h 2 2 v 2.086034 C 14,22.176691 16.999987,22.489296 17.644531,22.5 18.249987,22.489296 22,22.176691 22,21.552035 V 4.1787656 C 21.874017,3.9861488 21.610707,3.8846594 20.90747,3.7017325 18.328941,3.0416408 14.987548,2.5820796 12,2.5 Z"/>
 <path style="fill:#e84343" d="M 12,2 C 9.012452,2.0820796 5.6710595,2.5416408 3.0925293,3.2017325 2.3892931,3.3846594 2.1259831,3.4861488 2,3.6787656 V 21.052035 C 2,21.676691 5.7500125,21.989296 6.355469,22 7.0000125,21.989296 9.964344,21.675673 10,21.052035 V 19 h 2 2 v 2.052034 C 14,21.676691 16.999987,21.989296 17.644531,22 18.249987,21.989296 22,21.676691 22,21.052035 V 3.6787656 C 21.874017,3.4861488 21.610707,3.3846594 20.90747,3.2017325 18.328941,2.5416408 14.987548,2.0820796 12,2 Z"/>
 <path style="opacity:0.2" d="m 6,12.214001 c 3.9865,-0.225145 7.9805,-0.33982 12,0 -0.662,3.672572 -3.086,3.712799 -5.5,3.771036 C 9.785,16.14474 6.48,15.035224 6,12.214001 m 0,0"/>
 <path style="fill:#2f2f2f" d="M 6.3189975,9.5 C 7.229794,9.4136435 7.2261285,9.404321 8.844304,9.2757675 9.0197745,8.7890315 9.1787515,8.4975785 8.5400945,7.5908355 7.8368385,6.5805635 6.7075065,7.01578 6.249359,7.778759 5.8576435,8.635454 5.9630175,9.1742005 6.3189975,9.5 m 0,0"/>
 <path style="fill:#ffffff" d="M 8,8.5000005 C 8,8.773942 7.7764505,9 7.5000005,9 7.2235495,9 7,8.773942 7,8.5000005 7,8.226058 7.2235495,8 7.5000005,8 7.7764505,8 8,8.226058 8,8.5000005 m 0,0"/>
 <path style="opacity:0.2" d="M 15.23594,10.503056 C 16.15696,10.520281 17.5,10.5 17.617069,10.5 17.992812,10.233292 18.257117,9.1931305 17.592784,8.169082 16.863682,7.0250155 15.687881,7.51787 15.211655,8.381893 c -0.407173,0.970151 -0.128581,1.6116395 0.02428,2.115051"/>
 <path style="fill:#2f2f2f" d="M 15.23594,10.003056 C 16.15696,10.020281 17.5,10 17.617069,10 17.992812,9.733292 18.257117,8.6931305 17.592784,7.669082 16.863682,6.5250155 15.687881,7.01787 15.211655,7.881893 14.804482,8.852044 15.083074,9.4935325 15.23594,9.996944"/>
 <path style="fill:#ffffff" d="M 17,8.5 C 17,8.7784 16.775684,9 16.498287,9 16.224315,9 16,8.7784 16,8.5 16,8.22606 16.224315,8 16.498287,8 16.775684,8 17,8.22606 17,8.5 m 0,0"/>
 <path style="fill:#2f2f2f" d="m 6,11.714001 c 3.9865,-0.225145 7.9805,-0.33982 12,0 -0.662,3.672572 -3.086,3.712799 -5.5,3.771036 C 9.785,15.644741 6.48,14.535224 6,11.714001 m 0,0"/>
 <path style="fill:#ffffff" d="m 6.9976765,13.050442 c 0.04646,0.229825 -0.077175,0.469779 0.130867,0.615659 1.288516,0.899848 3.7065485,1.29961 5.3476515,1.333393 2.171789,0.01177 3.883616,-0.178127 4.466441,-0.961783 C 17.06963,13.865726 16.990175,13.287626 17,13.031696 L 15.776984,13.001496 17,12.885304 V 12.047602 H 11.00697 L 11,13 H 10 L 9.98847,12 H 7.000001 l 0.0023,0.947558 0.9392875,0.03224"/>
 <path style="opacity:0.2" d="m 6.00876,10.026144 v 0.02855 c -0.01168,0.03535 -0.01168,0.07432 0,0.109674 0.01168,0.04442 0.039615,0.07976 0.069583,0.115113 0.1112315,0.122364 0.2818875,0.198502 0.4560995,0.216176 0.176751,0.01768 0.3570575,-0.01949 0.5140005,-0.09563 0.1371345,-0.06571 0.2559845,-0.157714 0.392611,-0.224787 0.1330715,-0.06209 0.275793,-0.09563 0.4286725,-0.104236 0.2183995,-0.0091 0.436291,0.04079 0.658754,0.01949 0.1091995,-0.0091 0.216368,-0.03716 0.305759,-0.09563 0.04368,-0.02855 0.083296,-0.0639 0.1112315,-0.1028761 0.032,-0.04622 0.049775,-0.09019 0.05333,-0.141851 0.0061,-0.06028 -0.01168,-0.118739 -0.039615,-0.1735761 C 8.931251,9.5235457 8.8875715,9.4755067 8.840336,9.4347187 8.743326,9.3513297 8.626,9.2915077 8.5147685,9.2239807 8.4553435,9.1868157 8.393887,9.1460302 8.3202405,9.1265427 8.2349125,9.1034277 8.139934,9.1192927 8.048511,9.1088677 c -0.09701,-0.00906 -0.18437,-0.044415 -0.275793,-0.067074 -0.1864015,-0.0494 -0.3849925,-0.053024 -0.5774885,-0.0213 -0.190465,0.02991 -0.3707715,0.1010635 -0.535841,0.194876 -0.1569425,0.088373 -0.301696,0.205299 -0.3728025,0.3557615 -0.013715,0.02991 -0.02387,0.06209 -0.039615,0.092 C 6.191609,9.7959178 6.108313,9.9182819 6.0087635,10.026144"/>
 <path style="fill:#de7295" d="m 6.00876,9.5261437 v 0.02855 c -0.01168,0.03535 -0.01168,0.07432 0,0.1096741 0.01168,0.04442 0.039615,0.07976 0.069583,0.115113 0.1112315,0.1223641 0.2818875,0.1985021 0.4560995,0.2161761 0.176751,0.01768 0.3570575,-0.01949 0.5140005,-0.09563 0.1371345,-0.06571 0.2559845,-0.1577141 0.392611,-0.2247871 0.1330715,-0.06209 0.275793,-0.09563 0.4286725,-0.1042361 0.2183995,-0.0091 0.436291,0.04079 0.658754,0.01949 0.1091995,-0.0091 0.216368,-0.03716 0.305759,-0.095626 0.04368,-0.02855 0.083296,-0.063901 0.1112315,-0.102876 0.032,-0.046225 0.049775,-0.090187 0.05333,-0.1418515 0.0061,-0.06027 -0.01168,-0.118733 -0.039615,-0.17357 C 8.931251,9.0235457 8.8875715,8.9755067 8.840336,8.9347187 8.743326,8.8513297 8.626,8.7915077 8.5147685,8.7239807 8.4553435,8.6868157 8.393887,8.6460302 8.3202405,8.6265427 8.2349125,8.6034277 8.139934,8.6192927 8.048511,8.6088677 c -0.09701,-0.00906 -0.18437,-0.044415 -0.275793,-0.067074 -0.1864015,-0.0494 -0.3849925,-0.053024 -0.5774885,-0.0213 -0.190465,0.02991 -0.3707715,0.1010635 -0.535841,0.194876 -0.1569425,0.088373 -0.301696,0.205299 -0.3728025,0.3557615 -0.013715,0.02991 -0.02387,0.062088 -0.039615,0.092 C 6.191609,9.2959187 6.108313,9.4182827 6.0087635,9.5261447"/>
 <path style="opacity:0.2;fill:#ffffff" d="M 12,2 C 9.012452,2.0820796 5.6713035,2.5420568 3.0927735,3.2021485 2.3895372,3.3850754 2.1259831,3.4860941 2,3.678711 V 4.1787109 C 2.1259831,3.9860941 2.3895372,3.8850754 3.0927735,3.7021485 5.6713035,3.0420568 9.012452,2.5820796 12,2.5 14.987548,2.58208 18.328696,3.0420568 20.907226,3.7021485 21.610463,3.8850754 21.874017,3.9860941 22,4.1787109 V 3.678711 C 21.874017,3.4860941 21.610463,3.3850754 20.907226,3.2021485 18.328696,2.5420568 14.987548,2.0820796 12,2 Z"/>
 <path style="opacity:0.2;fill:none;stroke:#000000;stroke-width:1px;stroke-linecap:round;stroke-linejoin:bevel" d="M 8.4050855,3.9736296 10.526406,6.0949499"/>
 <path style="opacity:0.2;fill:none;stroke:#000000;stroke-linecap:round" d="M 8.4050501,6.0949146 10.52637,3.9735942"/>
 <g transform="rotate(-45,8.6707107,4.2049401)">
  <path style="fill:none;stroke:#e6e6e6;stroke-width:1px;stroke-linecap:round;stroke-linejoin:bevel" d="m 9,3.5 v 3"/>
  <path style="fill:none;stroke:#efefef;stroke-linecap:round" d="m 7.5,4.99995 h 3"/>
 </g>
</svg>
